icons/fill-new-other-truck.svg

<svg xmlns="http://www.w3.org/2000/svg" width="32px" height="32px" viewBox="0 0 32 32" version="1.1">
    <title>fill-new-other-truck</title>
    <g id="fill-new-other-truck" stroke-width="1" fill-rule="evenodd">
        <path d="M8.5,20 C10.4329966,20 12,21.5670034 12,23.5 C12,25.4329966 10.4329966,27 8.5,27 C6.56700338,27 5,25.4329966 5,23.5 C5,21.5670034 6.56700338,20 8.5,20 Z M21.5,20 C23.4329966,20 25,21.5670034 25,23.5 C25,25.4329966 23.4329966,27 21.5,27 C19.5670034,27 18,25.4329966 18,23.5 C18,21.5670034 19.5670034,20 21.5,20 Z M19,5 C19.5522847,5 20,5.44771525 20,6 L20.0008328,18.206797 C18.1684869,18.7247371 16.7247371,20.1684869 16.206797,22.0008328 L13.793203,22.0008328 C13.1405491,19.691902 11.017857,18 8.5,18 C5.98214303,18 3.85945095,19.691902 3.20679702,22.0008328 L3,22 C2.44771525,22 2,21.5522847 2,21 L2,6 C2,5.44771525 2.44771525,5 3,5 L19,5 Z M29.076,16 L29.8227604,20.8479428 C29.9067393,21.3938054 29.5323085,21.9043928 28.9864459,21.9883717 C28.9361301,21.9961126 28.8852966,22 28.8343887,22 L26.793203,22.0008328 C26.1842917,19.8466529 24.2957908,18.2295635 22.0006121,18.0224767 L22,16 L29.076,16 Z M27.142081,9 C27.6356521,9 28.0554017,9.36011113 28.1304527,9.84794282 L28.769,14 L22,14 L22,9 L27.142081,9 Z" id="&#24418;&#29366;" />
    </g>
</svg>

<svg xmlns="http://www.w3.org/2000/svg" viewBox="0 0 32 32"><path fill="currentColor" d="M8.5 20a3.5 3.5 0 1 1 0 7 3.5 3.5 0 0 1 0-7m13 0a3.5 3.5 0 1 1 0 7 3.5 3.5 0 0 1 0-7M19 5a1 1 0 0 1 1 1v12.207A5.511 5.511 0 0 0 16.208 22h-2.414a5.502 5.502 0 0 0-10.586 0L3 22a1 1 0 0 1-1-1V6a1 1 0 0 1 1-1zm10.076 11 .747 4.848A1 1 0 0 1 28.834 22h-2.04A5.504 5.504 0 0 0 22 18.023L22 16zm-1.934-7a1 1 0 0 1 .988.848L28.77 14H22V9z"/></svg>
